X: 2005
T: LADY BINNING
R: Strathspey.
%R: strathspey
B: James Kerr "Merry Melodies" v.2 p.4 #5
Z: 2016 John Chambers <jc:trillian.mit.edu>
M: C
L: 1/8
K: A
[|\
(vA/B/c) uB>uA (c<e) c2 | vd>vcuB>uA (G<B) E2 |\
(A/B/c) B>A (c<e) c2 | A/G/F/E/ F>G A2 (A>B) |\
(vA/B/c) uB>uA (c<e) c2 |
vd>vcuB>uA (G<B) E2 |\
(A/B/c) B>A (c<e) c2 | a/g/f/e/ f>ug a2 (3(efg) |]\
va>veuf>ue va>uA d/c/B/A/ | vG>vBuE>uB vG>vB uE>ug |
a>ef>e a>A d/c/B/A/ | (G/A/B) E>G A2 uA>ug |\
a>ef>e a>Ac>A | G<B E<B G<B E<B |\
vA>vcuB>ud c>ed>f | a/g/f/e/ f>ug a2 az |]
